!!!COM: Bach, Johann Sebastian
!!!CDT: 1685/02/21/-1750/07/28/
!!!OTL@@DE:	Ach Gott und Herr
!!!SCT: BWV 255
!!!PC#:	40
!!!hymn: Leipzig, 1625
!!!AGN: chorale
**harm	**kern	**kern	**kern	**kern
*	*ICvox	*ICvox	*ICvox	*ICvox
*	*Ibass	*Itenor	*Ialto	*Isoprn
*	*I"Bass	*I"Tenor	*I"Alto	*I"Soprano
*	*	*oclefC4	*oclefC3	*oclefC1
*	*clefF4	*clefGv2	*clefG2	*clefG2
*k[]	*k[]	*k[]	*k[]	*k[]
*C:	*C:	*C:	*C:	*C:
*M4/4	*M4/4	*M4/4	*M4/4	*M4/4
*met(c)	*met(c)	*met(c)	*met(c)	*met(c)
*MM100	*MM100	*MM100	*MM100	*MM100
I	4C	4e	4g	4cc
=1	=1	=1	=1	=1
V	4G	4d	4g	4b
V7/V	4D	4c	4f#	4a
V;	4GG;	4B;	4d;	4g;
I	8CL	8cL	8eL	8gL
V7/IV	8CJ	8B-J	8eJ	8gJ
=2	=2	=2	=2	=2
IV	4F	4A	4c	4a
viio6	4D	4F	4d	4bnX
I;	4C;	4G;	4e;	4cc;
V	4GG	4B	4g	4dd
=3	=3	=3	=3	=3
G:viio6	4AA	4c	4f#	4cc
I6	4BB	4d	4g	4b
V	4D	4d	4f#	4a
I	4G	4d	4g	4b
=4	=4	=4	=4	=4
ii65	4C	4e	4g	4a
V7	4D	4c	4f#	4a
I;	4GG;	4B;	4d;	4g;
IV6	4E	4c	4g	4cc
=5	=5	=5	=5	=5
C:viio6	4D	4d	4fnX	4b
I	4C	4e	4g	4cc
V;	4G;	4B;	4g;	4dd;
V	4G	4B	4g	4dd
=6	=6	=6	=6	=6
I	4c	4c	4g	4ee
viio6/V	4A	4c	4f#	4cc
V;	4G;	4B;	4g;	4dd;
I6	4E	4c	4g	4g
=7	=7	=7	=7	=7
a:IV65	4F#	4c	4d	4a
viio	4G#	4B	4d	4b
i	4A	4e	4c	4cc
C:I64	8GL	8gL	8cL	8eeL
IV	8FnXJ	8cJ	8aJ	8ffJ
=8	=8	=8	=8	=8
V(54)	4G	4c	4g	4dd
V7	4GG	4B	4f	4dd
I;	4C;	4G;	4e;	4cc;
==	==	==	==	==
*-	*-	*-	*-	*-
!!!YOR1: 371 vierstimmige Choralges&auml;nge von Johann Sebastian Bach, 
!!!YOR2: 4th ed. by Alfred D&ouml;rffel (Leipzig: Breitkopf und H&auml;rtel, 
!!!YOR2: c.1875). 178 pp. Plate "V.A.10".  reprint: J.S. Bach, 371 Four-Part 
!!!YOR4: Chorales (New York: Associated Music Publishers, Inc., c.1940).
!!!SMS: B&H, 4th ed, Alfred D&ouml;rffel, c.1875, plate V.A.10
!!!PC#2: 4 (Budapest/Imre, 1982)
!!!EED:  Craig Stuart Sapp
!!!EEV:  2009/05/22
